X:1
T:Title
T:Benedetto sia il Signor 
T:Trascrizione: Marco Cavallo 
T:Benedetto sia il Signor, benedetto sia il Signor, benedetto sia il Signor Gesù! Benedetto sia il Signor, benedetto sia il Signor, benedetto sia il Signor Gesù! Il nome di Dio è una fortezza, il giusto vi corre e salvo sarà! Il nome di Dio è una fortezza, il giusto vi corre e salvo sarà! Gloria al Tuo nome Signor, gloria al Tuo nome Signor, gloria al Tuo nome Signor Gesù! Gloria al Tuo nome Signor, gloria al Tuo nome Signor, gloria al Tuo nome Signor Gesù! Il nome di Dio è una fortezza, il giusto vi corre e salvo sarà! Il nome di Dio è una fortezza, il giusto vi corre e salvo sarà! 
C:Composer
L:1/8
Q:1/4=120
M:4/4
K:E
V:1 treble nm="Piano" snm="Pno."
V:1
"E" GGGG GFEG- | G8 |"A" AAAA AGFA- | A4"B7" B4 |"E" BBBB BAGE- |"A" E4 G4 |"B7" F8 | %7
w: 1.~Be- ne- det- to si- ail Si- gnor,||be- ne- det- to si- ail Si- gno-|* or,|be- ne- det- to si- ail Si- gnor|* Ge-|sù!|
w: 2.~Glo- ria al Tuo no- me Si- gnor,||glo- ria al Tuo no- me Si- gno-|* or,|glo- ria al Tuo no- me Si- gnor|* Ge-|sù!|
"E" GGGG GFEG- | G8 |"A" AAAA AGFA- | A4"B7" B4 |"E" BBBB BAGE- |"A" E4"B7" G2 F2 |"E" E8 | %14
w: Be- ne- det- to si- ail Si- gnor,||be- ne- det- to si- ail Si- gno-|* or,|be- ne- det- to si- ail Si- gnor|* Ge- *|sù!|
w: Glo- ria al Tuo no- me Si- gnor,||glo- ria al Tuo no- me Si- gno-|* or,|glo- ria al Tuo no- me Si- gnor|* Ge- *|sù!|
 z2 z E EF G2 | G4 E4 |"A" z2 z E AA A2 |"E" G4 E4 | z2 z E EF G2 |"B7" F4 B,4 | z2 z B, AG F2 | %21
w: Il no- me di|Di- o|è u- na for-|tez- za,|il giu- sto vi|cor- re|e sal- vo sa-|
w: |||||||
"E" G8 | z2 z E EF G2 | G4 E4 |"A" z2 z E AA A2 |"E" G4 E4 | z2 z E EF G2 |"B7" F4 B,4 | %28
w: rà!|Il no- me di|Di- o|è u- na for-|tez- za,|il giu- sto vi|cor- re|
w: |||||||
 z2 z B, AG F2 |"E" E8 |] %30
w: e sal- vo sa-|rà!|
w: ||

